X:1
T:Young Barbour
M:4/4
L:1/8
K:D
 D2| D2F-A AB AG| F2 EF D2 AA| B3 c d2c-A| B6 AA| A2B-c d2 cB| AF FA d2 dd|\
 BB B2A-FE-F| D4 E3 E| BB B2A-FE-F| D6||
